symbols/web/view_in_ar/materialsymbolsrounded/view_in_ar_wght200gradN25_24px.svg

<svg xmlns="http://www.w3.org/2000/svg" height="24" width="24"><path d="M2.625 6.05q-.2 0-.337-.125Q2.15 5.8 2.15 5.6V4.475q0-.95.688-1.638.687-.687 1.637-.687H5.6q.2 0 .325.137.125.138.125.313 0 .2-.125.337-.125.138-.325.138H4.475q-.575 0-.987.412-.413.413-.413.988V5.6q0 .2-.137.325-.138.125-.313.125Zm1.85 15.8q-.95 0-1.637-.687-.688-.688-.688-1.638V18.4q0-.2.138-.325.137-.125.337-.125.175 0 .313.125.137.125.137.325v1.125q0 .575.413.988.412.412.987.412H5.6q.2 0 .325.137.125.138.125.313 0 .2-.125.337-.125.138-.325.138Zm13.925-.2q-.2 0-.325-.138-.125-.137-.125-.337t.125-.325q.125-.125.325-.125h1.125q.575 0 .988-.413.412-.412.412-.987V18.2q0-.175.137-.313.138-.137.313-.137.2 0 .338.137.137.138.137.313v1.125q0 .95-.687 1.637-.688.688-1.638.688Zm3-15.6q-.2 0-.338-.125-.137-.125-.137-.325V4.475q0-.575-.412-.988-.413-.412-.988-.412H18.4q-.2 0-.325-.138-.125-.137-.125-.312 0-.2.125-.338.125-.137.325-.137h1.125q.95 0 1.638.687.687.688.687 1.638V5.6q0 .2-.137.325-.138.125-.313.125ZM11.225 19.075l-4.85-2.85q-.375-.2-.575-.55-.2-.35-.2-.775V9.25q0-.425.2-.775.2-.35.575-.575l4.85-2.85q.375-.2.775-.2t.775.2L17.65 7.9q.35.225.55.575.2.35.2.775v5.65q0 .425-.2.775-.2.35-.55.55l-4.875 2.85Q12.4 19.3 12 19.3t-.775-.225Zm.325-.9V12.3L6.525 9.475V14.9q0 .15.075.288.075.137.225.237Zm.925 0 4.7-2.775q.15-.075.225-.212.075-.138.075-.288V9.475l-5 2.825ZM12 11.5l5.025-2.875L12.3 5.9q-.15-.075-.3-.075t-.3.075L6.975 8.625Zm0 .8Zm0-.8Zm.475.8Zm-.925 0Z"/></svg>

<svg xmlns="http://www.w3.org/2000/svg" height="24" width="24"><path d="M11.5 19.225 6.075 16.075Q5.825 15.925 5.713 15.7Q5.6 15.475 5.6 15.225V8.925Q5.6 8.675 5.713 8.45Q5.825 8.225 6.075 8.075L11.5 4.925Q11.725 4.775 12 4.775Q12.275 4.775 12.5 4.925L17.925 8.075Q18.175 8.225 18.288 8.45Q18.4 8.675 18.4 8.925V15.225Q18.4 15.475 18.288 15.7Q18.175 15.925 17.925 16.075L12.5 19.225Q12.275 19.375 12 19.375Q11.725 19.375 11.5 19.225ZM11.55 18.175V12.3L6.525 9.475V15.25ZM12.475 18.175 17.475 15.25V9.475L12.475 12.3ZM2.625 6.05Q2.425 6.05 2.288 5.925Q2.15 5.8 2.15 5.6V4.475Q2.15 3.525 2.838 2.837Q3.525 2.15 4.475 2.15H5.6Q5.8 2.15 5.925 2.287Q6.05 2.425 6.05 2.6Q6.05 2.8 5.925 2.937Q5.8 3.075 5.6 3.075H4.475Q3.9 3.075 3.488 3.487Q3.075 3.9 3.075 4.475V5.6Q3.075 5.8 2.938 5.925Q2.8 6.05 2.625 6.05ZM4.475 21.85Q3.525 21.85 2.838 21.163Q2.15 20.475 2.15 19.525V18.4Q2.15 18.2 2.288 18.075Q2.425 17.95 2.625 17.95Q2.8 17.95 2.938 18.075Q3.075 18.2 3.075 18.4V19.525Q3.075 20.1 3.488 20.513Q3.9 20.925 4.475 20.925H5.6Q5.8 20.925 5.925 21.062Q6.05 21.2 6.05 21.375Q6.05 21.575 5.925 21.712Q5.8 21.85 5.6 21.85ZM18.4 21.65Q18.2 21.65 18.075 21.512Q17.95 21.375 17.95 21.175Q17.95 20.975 18.075 20.85Q18.2 20.725 18.4 20.725H19.525Q20.1 20.725 20.513 20.312Q20.925 19.9 20.925 19.325V18.2Q20.925 18.025 21.062 17.887Q21.2 17.75 21.375 17.75Q21.575 17.75 21.713 17.887Q21.85 18.025 21.85 18.2V19.325Q21.85 20.275 21.163 20.962Q20.475 21.65 19.525 21.65ZM21.4 6.05Q21.2 6.05 21.062 5.925Q20.925 5.8 20.925 5.6V4.475Q20.925 3.9 20.513 3.487Q20.1 3.075 19.525 3.075H18.4Q18.2 3.075 18.075 2.937Q17.95 2.8 17.95 2.625Q17.95 2.425 18.075 2.287Q18.2 2.15 18.4 2.15H19.525Q20.475 2.15 21.163 2.837Q21.85 3.525 21.85 4.475V5.6Q21.85 5.8 21.713 5.925Q21.575 6.05 21.4 6.05ZM12 11.5 17.025 8.625 12 5.75 6.975 8.625ZM12 12.3ZM12 11.5ZM12.475 12.3ZM11.55 12.3Z"/></svg>
